icons/Suru/scalable/categories/emoji-people-symbolic.svg

<?xml version="1.0" encoding="UTF-8"?>
<svg id="svg4" width="16" height="16" version="1.1" xmlns="http://www.w3.org/2000/svg" xmlns:cc="http://creativecommons.org/ns#" xmlns:dc="http://purl.org/dc/elements/1.1/" xmlns:rdf="http://www.w3.org/1999/02/22-rdf-syntax-ns#">
 <metadata id="metadata10">
  <rdf:RDF>
   <cc:Work rdf:about="">
    <dc:format>image/svg+xml</dc:format>
    <dc:type rdf:resource="http://purl.org/dc/dcmitype/StillImage"/>
    <dc:title/>
   </cc:Work>
  </rdf:RDF>
 </metadata>
 <path id="path987" d="m3 9c1.7944 1.3034 7.166 1.3034 9 0l-0.02799 0.53125c-0.03266 0.42971-0.89719 3.375-4.486 3.4062-3.5888 0.0312-4.486-2.78-4.486-3.3125z" fill="#808080"/>
 <path id="path985" d="m10 5c0.55833 0 1 0.47292 1 1.0312v0.96875c0 0.55833-0.44167 1-1 1s-1-0.44167-1-1v-0.96875c0-0.55833 0.44167-1.0312 1-1.0312z" fill="#808080"/>
 <path id="path983" d="m4.9688 4.9844c0.55833 0 1.0312 0.47292 1.0312 1.0312v0.96875c0 0.55833-0.47292 1-1.0312 1s-1-0.44167-1-1v-0.96875c0-0.55833 0.44167-1.0312 1-1.0312z" fill="#808080"/>
 <path id="path993" d="m7.4629 1a7.5 7.5 0 0 0-7.4629 7.5 7.5 7.5 0 0 0 7.5 7.5 7.5 7.5 0 0 0 7.5-7.5 7.5 7.5 0 0 0-7.5-7.5 7.5 7.5 0 0 0-0.037109 0zm0.037109 1a6.5 6.5 0 0 1 6.5 6.5 6.5 6.5 0 0 1-6.5 6.5 6.5 6.5 0 0 1-6.5-6.5 6.5 6.5 0 0 1 6.5-6.5z" fill="#808080" fill-rule="evenodd"/>
</svg>

<svg xmlns="http://www.w3.org/2000/svg" height="16" width="16">
    <path d="M3 9c1.794 1.303 7.166 1.303 9 0l-.028.531c-.033.43-.897 3.375-4.486 3.406C3.897 12.97 3 10.158 3 9.626zM10 5c.558 0 1 .473 1 1.031V7c0 .558-.442 1-1 1s-1-.442-1-1v-.969C9 5.473 9.442 5 10 5zM4.969 4.984C5.527 4.984 6 5.457 6 6.016v.968c0 .559-.473 1-1.031 1-.559 0-1-.441-1-1v-.968c0-.559.441-1.032 1-1.032z" fill="gray"/>
    <path d="M7.463 1A7.5 7.5 0 000 8.5 7.5 7.5 0 007.5 16 7.5 7.5 0 0015 8.5 7.5 7.5 0 007.5 1a7.5 7.5 0 00-.037 0zM7.5 2A6.5 6.5 0 0114 8.5 6.5 6.5 0 017.5 15 6.5 6.5 0 011 8.5 6.5 6.5 0 017.5 2z" fill="gray" fill-rule="evenodd"/>
</svg>
